docs/img/svg-after.svg

<svg width="216" height="164" viewBox="0 0 162 123" xmlns="http://www.w3.org/2000/svg"><path d="M15.48 13.28c1.24-.01 2.48-.03 3.71-.04.62 1.66.85 4.21 3.1 4.36 3.48.3 7.01.31 10.48-.01 2.22-.2 2.45-2.71 3.08-4.35 29.78.02 59.56 0 89.34.01.59 1.65.84 4.16 3.06 4.34 3.49.32 7.03.31 10.52 0 2.21-.19 2.42-2.71 3.07-4.35 1.22.01 2.44.01 3.67.02.01 33.23-.06 66.45.03 99.68l-3.97.06c-.23-2.19.52-5.46-2.04-6.5-3.78-.5-7.65-.35-11.45-.12-3.05.48-2.46 4.32-2.67 6.59-1.28.01-2.55.03-3.83.05.28-14.01.32-28.04-.04-42.04.1-6.66-3.72-12.34-5.52-18.48-.45.53-.89 1.06-1.33 1.59 5.55 6.92 6.62 16.31 6.59 24.9-.17 11.35.23 22.71-.2 34.05-.56-.19-1.68-.56-2.24-.75-.22-12.1-.04-24.21-.07-36.32.23-9.43-2.86-19.34-9.63-26.08 2.91 4.36 5.62 8.9 7.16 13.96-2.9.87-6.03 2.33-7.08 5.42-.97 3.8-.46 7.8-.06 11.65 2.28-1.14 4.56-2.28 6.84-3.43-.41.62-.83 1.25-1.24 1.88l.24 2.19 1.35-1.6c-.04 1.4-.13 4.19-.17 5.59.49-1.88.96-3.76 1.41-5.65.37 10.94.06 21.9.16 32.85-2.71 0-5.42 0-8.12-.01 1.95-9.76 5.31-19.26 6.42-29.16-2.87 9.61-4.93 19.46-7.48 29.16-3.41.04-6.83.04-10.25-.09 5.52-9.74 10.11-20.01 16-29.51-.41-.58-.84-1.15-1.26-1.71-1 3.48-3.11 6.45-4.78 9.62-3.92 7.28-7.98 14.5-11.71 21.88-16.52.18-33.04-.02-49.55.1-2.24.04-4.47-.14-6.67-.5-.7-9.82-.76-19.66-.55-29.51.79-6.86.18-13.98 2.61-20.57 3.6-10.98 12.47-19.99 23.32-23.91 9.71-3.55 20.41-2.71 30.29-.33l-1.82 1.61c.88-.27 2.63-.82 3.51-1.09l-.9 2.29 2.01-1.81c-1.07 2.54 1.84 3.95 3.75 4.26l-.06 1.04c.63-1.04 1.29-2.07 1.92-3.11-1.83-.13-3.67-.19-5.5-.22l.94-1.99c-10.44-4.56-22.58-5.23-33.42-1.74-15.04 4.91-26.19 19.64-26.76 35.47-.56 13.35-.86 26.77.12 40.11l-4.23-.06c-.26-2.17.51-5.37-2-6.45-3.8-.53-7.68-.36-11.5-.14-3.05.49-2.47 4.31-2.65 6.57-1.31.01-2.63.03-3.95.04.03-33.23.03-66.47 0-99.71m5.83 10.03c-3.09 2.41-1.52 7.26-1.74 10.71-.21 4.15 4.56 3.88 7.41 3.79 2.65-.34 6.55.93 8.09-1.98.81-2.86.42-5.9.41-8.83.1-1.61-.63-3.73-2.51-3.87-3.87-.2-7.82-.44-11.66.18m106.03-.01c-2.39 1.21-1.71 4.47-1.91 6.68.24 2.48-.66 6.13 2.13 7.45 3.9.57 7.96.56 11.86 0 2.82-1.29 1.94-4.97 2.14-7.45-.16-2.35.58-6.33-2.61-6.85-3.85-.21-7.79-.43-11.61.17m-22.22 20.71c1.38.96 2.76 2.21 4.43 2.58-.45-1.56-2.1-2.6-3.37-3.51-.83-.14-1.18.17-1.06.93m-83.76.43c-3.24 2.66-1.58 7.78-1.7 11.47.38 3.68 4.84 2.73 7.4 2.89 2.63-.38 6.61 1.06 8.06-1.93.71-3.22.47-6.6.25-9.88-.08-2.16-2.43-3.23-4.33-3-3.21.11-6.59-.46-9.68.45m105.99 0c-3.23 2.67-1.58 7.8-1.69 11.5.39 3.62 4.78 2.71 7.31 2.86 2.65-.39 6.64 1.07 8.14-1.9.73-3.24.47-6.64.25-9.93-.1-2.17-2.46-3.21-4.36-2.98-3.2.11-6.56-.47-9.65.45m-16.93 3.02c.3 1.61 1.59 2.84 2.46 4.18.34.1 1.01.29 1.35.39-.53-1.8-2-4.04-3.81-4.57M21.35 65.42c-2.6 1.53-1.67 5.08-1.92 7.58.18 2.18-.45 5.42 2.02 6.5 4.01.48 8.13.4 12.15.04 2.5-1.14 1.76-4.35 1.97-6.55-.27-2.51.76-6.17-2.01-7.59-4.06-.3-8.16-.3-12.21.02m106.04-.01c-2.66 1.5-1.71 5.1-1.96 7.61.18 2.16-.44 5.31 1.95 6.45 4 .54 8.12.42 12.15.09 2.56-1.05 1.83-4.33 2.04-6.52-.27-2.53.76-6.16-1.97-7.63-4.05-.31-8.16-.31-12.21 0m-23.18 16.94c-17.73 8.35-35.57 16.48-53.33 24.78-3.28 1.55-6.71 2.82-9.72 4.88 5.32-1.71 10.18-4.52 15.31-6.7 17.09-8.01 34.34-15.68 51.29-23.96-1.26-.07-2.42.53-3.55 1m-82.72 4.14c-2.75 1.37-1.81 5.05-2.06 7.54.12 2.36-.39 6.07 2.63 6.79 3.62.34 7.28.33 10.9.04 3.37-1.04 2.41-5.2 2.6-7.88-.19-2.18.51-5.36-1.96-6.46-4-.5-8.11-.46-12.11-.03m105.98.01c-2.73 1.37-1.79 5.04-2.04 7.52.12 2.37-.4 6.08 2.63 6.8 3.61.34 7.28.33 10.89.04 3.37-1.04 2.42-5.2 2.61-7.88-.19-2.18.52-5.41-2-6.47-3.99-.47-8.1-.46-12.09-.01M89.81 97.22c3.45-1.22 6.16-3.8 8.66-6.37-3.12 1.76-6.14 3.8-8.66 6.37M73.46 108.4l3.19.16c3.8-3.16 7.94-5.91 11.42-9.42-5.65 1.53-9.8 6.12-14.61 9.26z"/></svg>

<?xml version="1.0" encoding="UTF-8" ?>
<!DOCTYPE svg PUBLIC "-//W3C//DTD SVG 1.1//EN" "http://www.w3.org/Graphics/SVG/1.1/DTD/svg11.dtd">
<svg width="162pt" height="123pt" viewBox="0 0 162 123" version="1.1" xmlns="http://www.w3.org/2000/svg">
<g id="#000000ff">
<path fill="#000000" opacity="1.00" d=" M 15.48 13.28 C 16.72 13.27 17.96 13.25 19.19 13.24 C 19.81 14.90 20.04 17.45 22.29 17.60 C 25.77 17.90 29.30 17.91 32.77 17.59 C 34.99 17.39 35.22 14.88 35.85 13.24 C 65.63 13.26 95.41 13.24 125.19 13.25 C 125.78 14.90 126.03 17.41 128.25 17.59 C 131.74 17.91 135.28 17.90 138.77 17.59 C 140.98 17.40 141.19 14.88 141.84 13.24 C 143.06 13.25 144.28 13.25 145.51 13.26 C 145.52 46.49 145.45 79.71 145.54 112.94 C 144.22 112.96 142.89 112.98 141.57 113.00 C 141.34 110.81 142.09 107.54 139.53 106.50 C 135.75 106.00 131.88 106.15 128.08 106.38 C 125.03 106.86 125.62 110.70 125.41 112.97 C 124.13 112.98 122.86 113.00 121.58 113.02 C 121.86 99.01 121.90 84.98 121.54 70.98 C 121.64 64.32 117.82 58.64 116.02 52.50 C 115.57 53.03 115.13 53.56 114.69 54.09 C 120.24 61.01 121.31 70.40 121.28 78.99 C 121.11 90.34 121.51 101.70 121.08 113.04 C 120.52 112.85 119.40 112.48 118.84 112.29 C 118.62 100.19 118.80 88.08 118.77 75.97 C 119.00 66.54 115.91 56.63 109.14 49.89 C 112.05 54.25 114.76 58.79 116.30 63.85 C 113.40 64.72 110.27 66.18 109.22 69.27 C 108.25 73.07 108.76 77.07 109.16 80.92 C 111.44 79.78 113.72 78.64 116.00 77.49 C 115.59 78.11 115.17 78.74 114.76 79.37 C 114.82 79.92 114.94 81.01 115.00 81.56 L 116.35 79.96 C 116.31 81.36 116.22 84.15 116.18 85.55 C 116.67 83.67 117.14 81.79 117.59 79.90 C 117.96 90.84 117.65 101.80 117.75 112.75 C 115.04 112.75 112.33 112.75 109.63 112.74 C 111.58 102.98 114.94 93.48 116.05 83.58 C 113.18 93.19 111.12 103.04 108.57 112.74 C 105.16 112.78 101.74 112.78 98.32 112.65 C 103.84 102.91 108.43 92.64 114.32 83.14 C 113.91 82.56 113.48 81.99 113.06 81.43 C 112.06 84.91 109.95 87.88 108.28 91.05 C 104.36 98.33 100.30 105.55 96.57 112.93 C 80.05 113.11 63.53 112.91 47.02 113.03 C 44.78 113.07 42.55 112.89 40.35 112.53 C 39.65 102.71 39.59 92.87 39.80 83.02 C 40.59 76.16 39.98 69.04 42.41 62.45 C 46.01 51.47 54.88 42.46 65.73 38.54 C 75.44 34.99 86.14 35.83 96.02 38.21 L 94.20 39.82 C 95.08 39.55 96.83 39.00 97.71 38.73 L 96.81 41.02 C 97.31 40.57 98.32 39.66 98.82 39.21 C 97.75 41.75 100.66 43.16 102.57 43.47 L 102.51 44.51 C 103.14 43.47 103.80 42.44 104.43 41.40 C 102.60 41.27 100.76 41.21 98.93 41.18 L 99.87 39.19 C 89.43 34.63 77.29 33.96 66.45 37.45 C 51.41 42.36 40.26 57.09 39.69 72.92 C 39.13 86.27 38.83 99.69 39.81 113.03 C 38.40 113.01 36.99 112.99 35.58 112.97 C 35.32 110.80 36.09 107.60 33.58 106.52 C 29.78 105.99 25.90 106.16 22.08 106.38 C 19.03 106.87 19.61 110.69 19.43 112.95 C 18.12 112.96 16.80 112.98 15.48 112.99 C 15.51 79.76 15.51 46.52 15.48 13.28 M 21.31 23.31 C 18.22 25.72 19.79 30.57 19.57 34.02 C 19.36 38.17 24.13 37.90 26.98 37.81 C 29.63 37.47 33.53 38.74 35.07 35.83 C 35.88 32.97 35.49 29.93 35.48 27.00 C 35.58 25.39 34.85 23.27 32.97 23.13 C 29.10 22.93 25.15 22.69 21.31 23.31 M 127.34 23.30 C 124.95 24.51 125.63 27.77 125.43 29.98 C 125.67 32.46 124.77 36.11 127.56 37.43 C 131.46 38.00 135.52 37.99 139.42 37.43 C 142.24 36.14 141.36 32.46 141.56 29.98 C 141.40 27.63 142.14 23.65 138.95 23.13 C 135.10 22.92 131.16 22.70 127.34 23.30 M 105.12 44.01 C 106.50 44.97 107.88 46.22 109.55 46.59 C 109.10 45.03 107.45 43.99 106.18 43.08 C 105.35 42.94 105.00 43.25 105.12 44.01 M 21.36 44.44 C 18.12 47.10 19.78 52.22 19.66 55.91 C 20.04 59.59 24.50 58.64 27.06 58.80 C 29.69 58.42 33.67 59.86 35.12 56.87 C 35.83 53.65 35.59 50.27 35.37 46.99 C 35.29 44.83 32.94 43.76 31.04 43.99 C 27.83 44.10 24.45 43.53 21.36 44.44 M 127.35 44.44 C 124.12 47.11 125.77 52.24 125.66 55.94 C 126.05 59.56 130.44 58.65 132.97 58.80 C 135.62 58.41 139.61 59.87 141.11 56.90 C 141.84 53.66 141.58 50.26 141.36 46.97 C 141.26 44.80 138.90 43.76 137.00 43.99 C 133.80 44.10 130.44 43.52 127.35 44.44 M 110.42 47.46 C 110.72 49.07 112.01 50.30 112.88 51.64 C 113.22 51.74 113.89 51.93 114.23 52.03 C 113.70 50.23 112.23 47.99 110.42 47.46 M 21.35 65.42 C 18.75 66.95 19.68 70.50 19.43 73.00 C 19.61 75.18 18.98 78.42 21.45 79.50 C 25.46 79.98 29.58 79.90 33.60 79.54 C 36.10 78.40 35.36 75.19 35.57 72.99 C 35.30 70.48 36.33 66.82 33.56 65.40 C 29.50 65.10 25.40 65.10 21.35 65.42 M 127.39 65.41 C 124.73 66.91 125.68 70.51 125.43 73.02 C 125.61 75.18 124.99 78.33 127.38 79.47 C 131.38 80.01 135.50 79.89 139.53 79.56 C 142.09 78.51 141.36 75.23 141.57 73.04 C 141.30 70.51 142.33 66.88 139.60 65.41 C 135.55 65.10 131.44 65.10 127.39 65.41 M 104.21 82.35 C 86.48 90.70 68.64 98.83 50.88 107.13 C 47.60 108.68 44.17 109.95 41.16 112.01 C 46.48 110.30 51.34 107.49 56.47 105.31 C 73.56 97.30 90.81 89.63 107.76 81.35 C 106.50 81.28 105.34 81.88 104.21 82.35 M 21.49 86.49 C 18.74 87.86 19.68 91.54 19.43 94.03 C 19.55 96.39 19.04 100.10 22.06 100.82 C 25.68 101.16 29.34 101.15 32.96 100.86 C 36.33 99.82 35.37 95.66 35.56 92.98 C 35.37 90.80 36.07 87.62 33.60 86.52 C 29.60 86.02 25.49 86.06 21.49 86.49 M 127.47 86.50 C 124.74 87.87 125.68 91.54 125.43 94.02 C 125.55 96.39 125.03 100.10 128.06 100.82 C 131.67 101.16 135.34 101.15 138.95 100.86 C 142.32 99.82 141.37 95.66 141.56 92.98 C 141.37 90.80 142.08 87.57 139.56 86.51 C 135.57 86.04 131.46 86.05 127.47 86.50 M 89.81 97.22 C 93.26 96.00 95.97 93.42 98.47 90.85 C 95.35 92.61 92.33 94.65 89.81 97.22 M 73.46 108.40 C 74.26 108.44 75.86 108.52 76.65 108.56 C 80.45 105.40 84.59 102.65 88.07 99.14 C 82.42 100.67 78.27 105.26 73.46 108.40 Z" />
</g>
</svg>
